X: 8953
T: Currants For Cakes And Raisins For Everything
R: jig
M: 6/8
K: Dmajor
|:DFA|"D"dfd "A"cec|"F#"dcd "-"AFd|"D"DFA "F#"dAF|"E"GEE "A"EFG|
"D"FDF AF"F#"d|Aaf "G"gfe|"D"dfA "-"BAG|"A"(3FGA D:|
|:"D" D2D|"E"EFG "D"A2G|"Cnat"EAA GED|"E"EFG "D"A2G|"Cnat"E=CE GFE|
"D"FDF AF"F#"d|Aaf "G"gfe|"D"dfA "-"BAG|"A"(3FGA D:|

